public/orange/ksana.svg

<svg fill="none" height="289" viewBox="0 0 471 289" width="471" xmlns="http://www.w3.org/2000/svg"><g fill="#ed8936"><path d="m57.29 180v-3.06h7.82l-19.21-39.44-3.23.85v38.59h7.82v3.06h-48.79v-3.06h9.35v-121.38h-10.03v-3.06h41.65v82.45l2.72-1.02 38.25-31.79h-15.98v-3.06h33.49v3.06h-11.9l-20.23 17.17 29.41 57.63h6.12v3.06zm53.74 1.7v-30.43h2.04c2.947 9.86 6.913 16.773 11.9 20.74s11.22 5.95 18.7 5.95c11.56 0 17.34-3.683 17.34-11.05 0-3.173-1.417-5.553-4.25-7.14-4.42-2.493-10.087-4.42-17-5.78-7.707-2.04-14.167-4.76-19.38-8.16-6.233-4.08-9.35-10.54-9.35-19.38s2.72-15.867 8.16-21.08c5.44-5.327 12.693-7.99 21.76-7.99 5.553 0 11.277 1.3033 17.17 3.91 2.153.907 3.797 1.36 4.93 1.36s2.097-.397 2.89-1.19 1.757-2.2667 2.89-4.42h1.87v26.01h-2.04c-5.78-14.733-14.733-22.1-26.86-22.1-5.327 0-9.293.963-11.9 2.89-2.607 1.813-3.91 4.137-3.91 6.97 0 1.7.397 3.06 1.19 4.08.793.907 1.417 1.587 1.87 2.04s1.19.963 2.21 1.53c1.02.453 1.87.85 2.55 1.19.68.227 1.7.567 3.06 1.02 1.473.453 2.55.737 3.23.85 7.707 1.927 13.26 3.627 16.66 5.1 3.4 1.36 6.63 3.06 9.69 5.1 6.233 4.307 9.35 11.277 9.35 20.91 0 9.52-2.833 16.773-8.5 21.76-5.667 4.873-13.43 7.31-23.29 7.31-7.027 0-13.827-1.643-20.4-4.93-1.36-.907-2.437-1.36-3.23-1.36-2.493 0-4.93 2.097-7.31 6.29zm110.601-41.65h4.93v-13.09c0-10.767-.623-17.963-1.87-21.59-1.133-3.74-3.4-5.61-6.8-5.61-2.04 0-3.91.567-5.61 1.7-1.587 1.02-2.38 2.493-2.38 4.42 0 1.813.34 3.683 1.02 5.61h4.25c.907 2.38 1.36 5.27 1.36 8.67 0 3.287-1.417 6.177-4.25 8.67-2.833 2.38-6.403 3.57-10.71 3.57-9.747 0-14.62-4.703-14.62-14.11 0-13.94 11.843-20.91 35.53-20.91 13.487 0 22.78 2.3233 27.88 6.97 5.213 4.533 7.82 12.92 7.82 25.16v34.51c0 5.893 1.643 8.84 4.93 8.84 3.853 0 6.12-5.837 6.8-17.51l2.55.17c-.453 9.973-2.323 16.83-5.61 20.57s-8.67 5.61-16.15 5.61c-13.6 0-21.42-4.193-23.46-12.58-1.473 4.307-3.683 7.48-6.63 9.52s-7.253 3.06-12.92 3.06c-16.773 0-25.16-6.857-25.16-20.57 0-8.047 3.173-13.543 9.52-16.49 6.46-3.06 16.32-4.59 29.58-4.59zm-6.8 20.91c0 5.893.283 9.69.85 11.39.68 1.7 1.87 2.55 3.57 2.55 1.813 0 3.457-1.417 4.93-4.25 1.587-2.947 2.38-6.97 2.38-12.07v-15.81h-1.19c-7.027 0-10.54 5.157-10.54 15.47zm59.641-61.88h40.97v15.64c1.813-5.213 4.59-9.407 8.33-12.58 3.74-3.1733 9.406-4.76 17-4.76 17.566 0 26.35 9.463 26.35 28.39v51.17h9.52v3.06h-48.11v-3.06h6.97v-55.25c0-6.8-.454-11.163-1.36-13.09-.907-2.04-2.55-3.06-4.93-3.06-3.627 0-6.857 2.38-9.69 7.14-2.72 4.76-4.08 10.54-4.08 17.34v46.92h7.31v3.06h-48.28v-3.06h9.35v-74.8h-9.35zm145.216 40.97h4.93v-13.09c0-10.767-.624-17.963-1.87-21.59-1.134-3.74-3.4-5.61-6.8-5.61-2.04 0-3.91.567-5.61 1.7-1.587 1.02-2.38 2.493-2.38 4.42 0 1.813.34 3.683 1.02 5.61h4.25c.906 2.38 1.36 5.27 1.36 8.67 0 3.287-1.417 6.177-4.25 8.67-2.834 2.38-6.404 3.57-10.711 3.57-9.746 0-14.619-4.703-14.619-14.11 0-13.94 11.843-20.91 35.53-20.91 13.486 0 22.78 2.3233 27.88 6.97 5.213 4.533 7.82 12.92 7.82 25.16v34.51c0 5.893 1.643 8.84 4.93 8.84 3.853 0 6.12-5.837 6.8-17.51l2.55.17c-.454 9.973-2.324 16.83-5.61 20.57-3.287 3.74-8.67 5.61-16.15 5.61-13.6 0-21.42-4.193-23.46-12.58-1.474 4.307-3.684 7.48-6.63 9.52-2.947 2.04-7.254 3.06-12.92 3.06-16.774 0-25.16-6.857-25.16-20.57 0-8.047 3.173-13.543 9.52-16.49 6.46-3.06 16.32-4.59 29.58-4.59zm-6.8 20.91c0 5.893.283 9.69.85 11.39.68 1.7 1.87 2.55 3.57 2.55 1.813 0 3.456-1.417 4.93-4.25 1.586-2.947 2.38-6.97 2.38-12.07v-15.81h-1.19c-7.027 0-10.54 5.157-10.54 15.47z"/><path d="m364.1 261c-2.867 0-5.033-.833-6.5-2.5-1.4-1.733-2.1-3.8-2.1-6.2 0-2.467.733-4.533 2.2-6.2 1.533-1.667 3.667-2.5 6.4-2.5s4.9.7 6.5 2.1 2.4 3.5 2.4 6.3-.767 5-2.3 6.6c-1.467 1.6-3.667 2.4-6.6 2.4zm29.065-55.5c-3.533 0-6.067-.9-7.6-2.7-1.467-1.8-2.2-4.033-2.2-6.7s.8-4.867 2.4-6.6c1.667-1.733 4.167-2.6 7.5-2.6s5.867.8 7.6 2.4c1.733 1.533 2.6 3.767 2.6 6.7 0 2.867-.833 5.167-2.5 6.9s-4.267 2.6-7.8 2.6zm-15.1 6.9h24.5v45.8h5.6v1.8h-29.7v-1.8h5.5v-44h-5.9zm32.338 0h24.1v9.2c1.067-3.067 2.7-5.533 4.9-7.4s5.533-2.8 10-2.8c10.333 0 15.5 5.567 15.5 16.7v30.1h5.6v1.8h-28.3v-1.8h4.1v-32.5c0-4-.267-6.567-.8-7.7-.533-1.2-1.5-1.8-2.9-1.8-2.133 0-4.033 1.4-5.7 4.2-1.6 2.8-2.4 6.2-2.4 10.2v27.6h4.3v1.8h-28.4v-1.8h5.5v-44h-5.5z"/></g></svg>

<svg width="471" height="289" viewBox="0 0 471 289" fill="none" xmlns="http://www.w3.org/2000/svg">
<path d="M57.29 180V176.94H65.11L45.9 137.5L42.67 138.35V176.94H50.49V180H1.7V176.94H11.05V55.56H1.02V52.5H42.67V134.95L45.39 133.93L83.64 102.14H67.66V99.08H101.15V102.14H89.25L69.02 119.31L98.43 176.94H104.55V180H57.29ZM111.03 181.7V151.27H113.07C116.017 161.13 119.983 168.043 124.97 172.01C129.957 175.977 136.19 177.96 143.67 177.96C155.23 177.96 161.01 174.277 161.01 166.91C161.01 163.737 159.593 161.357 156.76 159.77C152.34 157.277 146.673 155.35 139.76 153.99C132.053 151.95 125.593 149.23 120.38 145.83C114.147 141.75 111.03 135.29 111.03 126.45C111.03 117.61 113.75 110.583 119.19 105.37C124.63 100.043 131.883 97.38 140.95 97.38C146.503 97.38 152.227 98.6833 158.12 101.29C160.273 102.197 161.917 102.65 163.05 102.65C164.183 102.65 165.147 102.253 165.94 101.46C166.733 100.667 167.697 99.1933 168.83 97.04H170.7V123.05H168.66C162.88 108.317 153.927 100.95 141.8 100.95C136.473 100.95 132.507 101.913 129.9 103.84C127.293 105.653 125.99 107.977 125.99 110.81C125.99 112.51 126.387 113.87 127.18 114.89C127.973 115.797 128.597 116.477 129.05 116.93C129.503 117.383 130.24 117.893 131.26 118.46C132.28 118.913 133.13 119.31 133.81 119.65C134.49 119.877 135.51 120.217 136.87 120.67C138.343 121.123 139.42 121.407 140.1 121.52C147.807 123.447 153.36 125.147 156.76 126.62C160.16 127.98 163.39 129.68 166.45 131.72C172.683 136.027 175.8 142.997 175.8 152.63C175.8 162.15 172.967 169.403 167.3 174.39C161.633 179.263 153.87 181.7 144.01 181.7C136.983 181.7 130.183 180.057 123.61 176.77C122.25 175.863 121.173 175.41 120.38 175.41C117.887 175.41 115.45 177.507 113.07 181.7H111.03ZM221.631 140.05H226.561V126.96C226.561 116.193 225.938 108.997 224.691 105.37C223.558 101.63 221.291 99.76 217.891 99.76C215.851 99.76 213.981 100.327 212.281 101.46C210.694 102.48 209.901 103.953 209.901 105.88C209.901 107.693 210.241 109.563 210.921 111.49H215.171C216.078 113.87 216.531 116.76 216.531 120.16C216.531 123.447 215.114 126.337 212.281 128.83C209.448 131.21 205.878 132.4 201.571 132.4C191.824 132.4 186.951 127.697 186.951 118.29C186.951 104.35 198.794 97.38 222.481 97.38C235.968 97.38 245.261 99.7033 250.361 104.35C255.574 108.883 258.181 117.27 258.181 129.51V164.02C258.181 169.913 259.824 172.86 263.111 172.86C266.964 172.86 269.231 167.023 269.911 155.35L272.461 155.52C272.008 165.493 270.138 172.35 266.851 176.09C263.564 179.83 258.181 181.7 250.701 181.7C237.101 181.7 229.281 177.507 227.241 169.12C225.768 173.427 223.558 176.6 220.611 178.64C217.664 180.68 213.358 181.7 207.691 181.7C190.918 181.7 182.531 174.843 182.531 161.13C182.531 153.083 185.704 147.587 192.051 144.64C198.511 141.58 208.371 140.05 221.631 140.05ZM214.831 160.96C214.831 166.853 215.114 170.65 215.681 172.35C216.361 174.05 217.551 174.9 219.251 174.9C221.064 174.9 222.708 173.483 224.181 170.65C225.768 167.703 226.561 163.68 226.561 158.58V142.77H225.371C218.344 142.77 214.831 147.927 214.831 158.24V160.96ZM274.472 99.08H315.442V114.72C317.255 109.507 320.032 105.313 323.772 102.14C327.512 98.9667 333.178 97.38 340.772 97.38C358.338 97.38 367.122 106.843 367.122 125.77V176.94H376.642V180H328.532V176.94H335.502V121.69C335.502 114.89 335.048 110.527 334.142 108.6C333.235 106.56 331.592 105.54 329.212 105.54C325.585 105.54 322.355 107.92 319.522 112.68C316.802 117.44 315.442 123.22 315.442 130.02V176.94H322.752V180H274.472V176.94H283.822V102.14H274.472V99.08ZM419.688 140.05H424.618V126.96C424.618 116.193 423.994 108.997 422.748 105.37C421.614 101.63 419.348 99.76 415.948 99.76C413.908 99.76 412.038 100.327 410.338 101.46C408.751 102.48 407.958 103.953 407.958 105.88C407.958 107.693 408.298 109.563 408.978 111.49H413.228C414.134 113.87 414.588 116.76 414.588 120.16C414.588 123.447 413.171 126.337 410.338 128.83C407.504 131.21 403.934 132.4 399.627 132.4C389.881 132.4 385.008 127.697 385.008 118.29C385.008 104.35 396.851 97.38 420.538 97.38C434.024 97.38 443.318 99.7033 448.418 104.35C453.631 108.883 456.238 117.27 456.238 129.51V164.02C456.238 169.913 457.881 172.86 461.168 172.86C465.021 172.86 467.288 167.023 467.968 155.35L470.518 155.52C470.064 165.493 468.194 172.35 464.908 176.09C461.621 179.83 456.238 181.7 448.758 181.7C435.158 181.7 427.338 177.507 425.298 169.12C423.824 173.427 421.614 176.6 418.668 178.64C415.721 180.68 411.414 181.7 405.748 181.7C388.974 181.7 380.588 174.843 380.588 161.13C380.588 153.083 383.761 147.587 390.108 144.64C396.568 141.58 406.428 140.05 419.688 140.05ZM412.888 160.96C412.888 166.853 413.171 170.65 413.738 172.35C414.418 174.05 415.608 174.9 417.308 174.9C419.121 174.9 420.764 173.483 422.238 170.65C423.824 167.703 424.618 163.68 424.618 158.58V142.77H423.428C416.401 142.77 412.888 147.927 412.888 158.24V160.96Z" fill="#ED8936"/>
<path d="M364.1 261C361.233 261 359.067 260.167 357.6 258.5C356.2 256.767 355.5 254.7 355.5 252.3C355.5 249.833 356.233 247.767 357.7 246.1C359.233 244.433 361.367 243.6 364.1 243.6C366.833 243.6 369 244.3 370.6 245.7C372.2 247.1 373 249.2 373 252C373 254.8 372.233 257 370.7 258.6C369.233 260.2 367.033 261 364.1 261ZM393.165 205.5C389.632 205.5 387.098 204.6 385.565 202.8C384.098 201 383.365 198.767 383.365 196.1C383.365 193.433 384.165 191.233 385.765 189.5C387.432 187.767 389.932 186.9 393.265 186.9C396.598 186.9 399.132 187.7 400.865 189.3C402.598 190.833 403.465 193.067 403.465 196C403.465 198.867 402.632 201.167 400.965 202.9C399.298 204.633 396.698 205.5 393.165 205.5ZM378.065 212.4H402.565V258.2H408.165V260H378.465V258.2H383.965V214.2H378.065V212.4ZM410.403 212.4H434.503V221.6C435.57 218.533 437.203 216.067 439.403 214.2C441.603 212.333 444.936 211.4 449.403 211.4C459.736 211.4 464.903 216.967 464.903 228.1V258.2H470.503V260H442.203V258.2H446.303V225.7C446.303 221.7 446.036 219.133 445.503 218C444.97 216.8 444.003 216.2 442.603 216.2C440.47 216.2 438.57 217.6 436.903 220.4C435.303 223.2 434.503 226.6 434.503 230.6V258.2H438.803V260H410.403V258.2H415.903V214.2H410.403V212.4Z" fill="#ED8936"/>
</svg>
